sharp/svg/flip.svg

<svg xmlns="http://www.w3.org/2000/svg" width="24" height="24"><path fill="none" d="M0 0h24v24H0V0z"/><g fill="currentColor"><path d="M15 21h2v-2h-2v2zm4-12h2V7h-2v2zM3 3v18h6v-2H5V5h4V3H3zm16 0v2h2V3h-2zm-8 20h2V1h-2v22zm8-6h2v-2h-2v2zM15 5h2V3h-2v2zm4 8h2v-2h-2v2zm0 8h2v-2h-2v2z"/></g></svg>

<?xml version="1.0" encoding="utf-8"?>
<!-- Generator: Adobe Illustrator 19.1.0, SVG Export Plug-In . SVG Version: 6.00 Build 0)  -->
<svg version="1.1" xmlns="http://www.w3.org/2000/svg" xmlns:xlink="http://www.w3.org/1999/xlink" x="0px" y="0px" width="24px"
	 height="24px" viewBox="0 0 24 24" enable-background="new 0 0 24 24" xml:space="preserve">
<g id="Bounding_Boxes">
	<g id="ui_x5F_spec_x5F_header_copy_3">
	</g>
	<path fill="none" d="M0,0h24v24H0V0z"/>
</g>
<g id="Sharp" fill="currentColor">
	<g id="ui_x5F_spec_x5F_header_copy_2">
	</g>
	<path d="M15,21h2v-2h-2V21z M19,9h2V7h-2V9z M3,3v18h6v-2H5V5h4V3H3z M19,3v2h2V3H19z M11,23h2V1h-2V23z M19,17h2v-2h-2V17z M15,5
		h2V3h-2V5z M19,13h2v-2h-2V13z M19,21h2v-2h-2V21z"/>
</g>
</svg>
